X:1
T:Vesper (Flotow), 87.87
T:Vesper (Flotow), 87.87
T:Arranged from Friedrich von Flotow, 1875
T:Public Domain Courtesy of the Cyber Hymnal™
C:Arranged from Friedrich von Flotow, 1875
Z:Public Domain
Z:Courtesy of the Cyber Hymnal™
%%score ( 1 2 ) ( 3 4 )
L:1/8
Q:1/4=105
M:4/4
K:Bb
V:1 treble 
V:2 treble 
V:3 bass 
V:4 bass 
V:1
 [DF]2 [DF]2 | [DB]3 [DB] [Ee]2 [Fd]2 | [Ec]4 [DB]2 [FB]>[Fc] | [Fd]2 [Fd]2 [=Ed]2 (c>B) | %4
 [Fc]4 F3 [EF] | [DB]2 [DB]2 [Ee]2 [Fd]2 | [Ec]4 [DB]2 [FB]>[_Af] | [Gf]2 [Ge]2 [Ec]3 [Ed] | %8
 [DB]4 x4 |] x4 |] %10
V:2
 x4 | x8 | x8 | x6 =E2 | x4 F3 x | x8 | x8 | x8 | x8 |] x4 |] %10
V:3
 [B,,F,]2 [B,,F,]2 | [B,,B,]3 [B,,A,] [B,,G,]2 [B,,B,]2 | [F,A,]4 [B,,B,]2 x2 | [D,B,]>[C,A,] x6 | %4
 [B,,B,]2 [B,,B,]2 [B,,B,]2 (A,>G,) | [F,A,]4 [F,A,]3 [F,A,] | %6
 [B,,B,]2 [B,,A,]2 [B,,G,]2 [B,,B,]2 | [F,A,]4 [B,,B,]2 [D,B,]>[D,B,] | %8
 [E,B,]2 [E,B,]2 [F,A,]3 [F,A,] |] [B,,B,]4 |] %10
V:4
 x4 | x8 | x8 | x8 | x6 C,2 | x8 | x8 | x8 | x8 |] x4 |] %10

